icons/production/travis-ci.svg

<?xml version="1.0" encoding="UTF-8" standalone="no"?>
<svg width="24px" height="24px" viewBox="0 0 24 24" version="1.1" xmlns="http://www.w3.org/2000/svg">
<!--Generator: Sketch 3.8.3 (29802) - http://www.bohemiancoding.com/sketch-->
    <title>
        travis-ci
    </title>
    <desc>
        Created with Sketch.
    </desc>
    <g id="Page-1" stroke="none" stroke-width="1" fill="none" fill-rule="evenodd">
        <path d="M12,2 C6.4775,2 2,6.4775 2,12 C2,17.5225 6.4775,22 12,22 C17.5225,22 22,17.5225 22,12 C22,6.4775 17.5225,2 12,2 L12,2 L12,2 Z M12.35,18.1325 C12.29375,18.24 12.19,18.315 12.07,18.3325 L11.1375,18.465 C11.43125,18.5525 11.7375,18.59875 12.055,18.59875 C12.47625,18.59875 12.8925,18.51125 13.28625,18.34875 L12.49875,17.82375 L12.34875,18.13125 L12.35,18.1325 L12.35,18.1325 Z M16.0125,16.50375 L14.57125,16.36125 C14.50875,16.35375 14.45125,16.3325 14.40125,16.29875 L13.4325,15.63625 L12.15,15.90875 C12.1125,15.915 12.07875,15.92125 12.04375,15.915 L10.65625,15.81 L9.83125,16.55 C9.78875,16.5875 9.73875,16.615 9.685,16.62875 L8.19125,17.05375 C8.125,17.06875 8.05875,17.07125 7.995,17.05375 L8.865,18.04125 L11.77375,17.625 L12.02375,17.11875 C12.07375,17.02375 12.15875,16.95375 12.26125,16.92625 C12.36375,16.89625 12.47375,16.91375 12.56125,16.97625 L13.65875,17.71 L16.1025,17.1475 L16.62125,16.3075 L16.18,16.4775 C16.12625,16.49875 16.07,16.50625 16.01,16.5025 L16.0125,16.50375 L16.0125,16.50375 Z M9.4,15.94375 L10.27875,15.15625 C10.35375,15.08875 10.45375,15.0525 10.55375,15.0625 L12.045,15.175 L13.4325,14.88125 C13.5325,14.86125 13.6325,14.88125 13.7175,14.93875 L14.73875,15.63875 L15.77875,15.73875 C15.885,15.48 15.97125,15.2075 16.03625,14.92875 C16.01875,14.92875 16.00125,14.92875 15.98375,14.92375 L13.13375,14.5325 C12.99625,14.515 12.88,14.42 12.83375,14.2875 L12.32875,12.82125 C12.26125,12.775 11.935,12.80125 11.7825,12.8775 L11.27,14.3175 C11.2275,14.43625 11.1275,14.52625 11.00375,14.555 L8.21,15.1975 C8.1925,15.2025 8.1725,15.20375 8.155,15.20625 C8.255,15.54 8.39,15.86875 8.555,16.185 L9.4025,15.94375 L9.4,15.94375 L9.4,15.94375 Z M7.0875,11.81875 L7.4375,13.8525 L8.2125,14.44 L10.64125,13.8775 L11.12875,12.505 C11.15375,12.435 11.20375,12.375 11.2625,12.33 C11.30375,12.30125 11.68125,12.0375 12.15,12.0375 C12.7,12.0375 12.94,12.3925 12.96625,12.43375 L13.45625,13.83125 L15.94,14.17125 L16.71125,13.6375 L17.22375,11.85875 C13.915,11.10875 10.39875,11.09625 7.08625,11.81875 L7.0875,11.81875 L7.0875,11.81875 Z M9.5875,13.34375 L9.3625,13.34375 C9.00875,13.34375 8.78125,13.32875 8.58,13.435 C8.5875,13.4225 8.67625,13.2275 8.9925,13.1475 C8.95875,13.0675 8.935,12.96 8.93,12.81 C8.90875,12.23875 9.2625,11.76875 9.6275,11.76375 C9.9925,11.76375 10.24625,12.22625 10.2525,12.80125 C10.2575,13.37625 9.9525,13.33875 9.58625,13.34375 L9.5875,13.34375 L9.5875,13.34375 Z M14.5775,11.62375 C14.94375,11.61125 15.2775,12.06375 15.32,12.63625 C15.3325,12.795 15.315,12.91125 15.2775,12.995 C15.615,12.955 15.69375,13.18625 15.69625,13.19875 C15.45,13.08 15.18,13.2325 14.69125,13.24 C14.3225,13.2525 14.02,13.2575 13.9975,12.68375 C13.97625,12.10875 14.21375,11.63375 14.5775,11.62125 L14.5775,11.62375 L14.5775,11.62375 Z M9.6775,12.12375 C9.575,12.12375 9.4925,12.21125 9.49625,12.31625 C9.49875,12.42 9.58625,12.50375 9.68875,12.4975 C9.7925,12.4925 9.8725,12.40625 9.87125,12.305 C9.8675,12.2025 9.78375,12.12125 9.67875,12.12375 L9.6775,12.12375 L9.6775,12.12375 Z M14.54875,12.3575 C14.64875,12.3575 14.73625,12.27 14.73125,12.17 C14.73125,12.06625 14.64375,11.9825 14.54125,11.98625 C14.4375,11.99 14.35375,12.07375 14.3575,12.17375 C14.3575,12.27875 14.445,12.36125 14.5475,12.3575 L14.54875,12.3575 L14.54875,12.3575 Z M12.055,19.3375 C13.1175,19.3375 14.135,18.9 14.96125,18.17 L16.41875,17.8325 C16.51375,17.81125 16.5975,17.75125 16.64875,17.6675 L17.82625,15.7675 C17.91,15.63 17.89875,15.45875 17.7975,15.33625 C17.69375,15.21125 17.5275,15.1675 17.37875,15.22625 L16.64375,15.50875 C16.7375,15.19875 16.80875,14.87625 16.8525,14.54625 C16.8575,14.50875 16.8575,14.47125 16.8525,14.43625 L17.2475,14.16125 C17.3225,14.10875 17.375,14.03 17.3975,13.94 L17.94,12.03 L17.985,12.0425 L17.9975,12.045 L18.0425,12.0575 C18.205,12.10125 18.37375,12.0325 18.4575,11.88625 C18.645,11.565 18.76375,11.1575 18.81125,10.67625 C18.86375,10.16125 18.82875,9.73875 18.70875,9.41125 C18.67125,9.315 18.59625,9.23625 18.5,9.19875 C18.18125,9.06875 17.85625,8.94875 17.5275,8.84 C17.04,6.515 14.74,4.79 12.0675,4.79 C9.4,4.79 7.0975,6.515 6.60875,8.8375 C6.2775,8.95 5.95,9.07 5.6275,9.2 C5.53125,9.24 5.455,9.3175 5.42,9.41625 C5.3,9.73875 5.265,10.16375 5.31625,10.67625 C5.36375,11.15875 5.4825,11.5675 5.67,11.88875 C5.73625,12.00625 5.86,12.07625 5.98875,12.07625 C6.0225,12.07625 6.05375,12.07125 6.08625,12.06375 C6.18,12.03625 6.27375,12.01375 6.37,11.98875 L6.72625,14.10625 C6.73875,14.20375 6.79125,14.29125 6.86875,14.35 L7.2975,14.6725 C7.29125,14.7125 7.29,14.755 7.2975,14.7975 C7.37875,15.2475 7.5225,15.70125 7.71625,16.1375 L6.7975,15.7475 C6.635,15.68125 6.455,15.7325 6.35375,15.8725 C6.25375,16.0125 6.26125,16.20375 6.37625,16.335 L8.4425,18.68125 C8.5125,18.76 8.615,18.80625 8.72,18.80625 C8.7375,18.80625 8.755,18.80625 8.7725,18.80125 L9.81,18.655 C10.4725,19.08 11.22875,19.3375 12.0525,19.33875 L12.05875,19.33875 L12.055,19.3375 L12.055,19.3375 Z M13.2175,9.13125 L13.2175,10.05375 C13.2175,10.2575 13.05125,10.42375 12.84625,10.42375 L11.33375,10.42375 C11.13125,10.42375 10.96625,10.25625 10.96625,10.0525 L10.96625,9.13 C10.96625,8.95125 11.09125,8.805 11.25875,8.7675 L11.25875,8.2125 L10.57125,8.2125 C10.36625,8.2125 10.2,8.04625 10.2,7.84125 L10.2,6.62125 C10.2,6.41625 10.3675,6.25125 10.57125,6.25125 L13.6125,6.25125 C13.8175,6.25125 13.9825,6.4175 13.9825,6.6225 L13.9825,7.8425 C13.9825,8.0475 13.8175,8.2125 13.61375,8.2125 L12.925,8.2125 L12.925,8.76875 C13.09375,8.80375 13.22,8.9525 13.22,9.13125 L13.2175,9.13125 L13.2175,9.13125 Z M17.21125,9.515 L17.20625,9.515 C17.12625,9.515 17.05125,9.49 16.99,9.44375 C16.0275,9.14375 15.035,8.93125 14.0225,8.81375 C13.81875,8.79125 13.6725,8.6075 13.6975,8.405 C13.7225,8.205 13.885,8.055 14.1075,8.08 C14.9825,8.18375 15.8475,8.355 16.69125,8.5875 C16.10375,6.8075 14.22875,5.53 12.06375,5.53 C9.905,5.53 8.02625,6.8075 7.43875,8.585 C8.20375,8.3725 8.98875,8.21375 9.7825,8.11 C9.995,8.085 10.17,8.2275 10.1975,8.42875 C10.2225,8.63125 10.08125,8.81625 9.87875,8.84125 C8.9325,8.96625 8.00375,9.17125 7.10375,9.45375 C7.06625,9.47375 7.02625,9.4875 6.98375,9.49125 C6.675,9.59125 6.3675,9.70125 6.06625,9.82 C6.03125,9.98625 6.01125,10.2375 6.0475,10.60375 C6.0725,10.8575 6.1225,11.07875 6.19125,11.27 C9.99875,10.3075 14.11875,10.3075 17.935,11.27 C18.00375,11.08 18.0525,10.8575 18.0775,10.60375 C18.11,10.29125 18.1025,10.02375 18.05875,9.82 C17.77625,9.71 17.49375,9.61 17.20875,9.515 L17.21125,9.515 L17.21125,9.515 Z M13.11875,7.4725 L13.24375,7.4725 L13.24375,6.99 L10.94125,6.99 L10.94125,7.4725 L11.06625,7.4725 C11.0725,7.275 11.235,7.11625 11.435,7.11625 L11.62875,7.11625 C11.8325,7.11625 11.99875,7.2825 11.99875,7.48625 L11.99875,9.13 C11.99875,9.3075 11.87375,9.455 11.705,9.4925 L11.705,9.68375 L12.4775,9.68375 L12.4775,9.49125 C12.30875,9.45625 12.1825,9.3075 12.1825,9.12875 L12.1825,7.4875 C12.1825,7.2825 12.34875,7.11625 12.5525,7.11625 L12.75,7.11625 C12.95,7.11625 13.1125,7.275 13.11875,7.4725 L13.11875,7.4725 L13.11875,7.4725 Z" id="travis-ci" fill="#000"/>
    </g>
</svg>

<svg xmlns="http://www.w3.org/2000/svg" viewBox="0 0 24 24">
    <path fill-rule="evenodd" d="M12 2C6.478 2 2 6.478 2 12c0 5.523 4.478 10 10 10 5.523 0 10-4.477 10-10 0-5.522-4.477-10-10-10zm.35 16.133a.379.379 0 0 1-.28.2l-.933.132c.294.087.6.134.918.134.421 0 .838-.088 1.231-.25l-.787-.525-.15.307.001.002zm3.662-1.63l-1.44-.142a.383.383 0 0 1-.17-.062l-.97-.663-1.282.273c-.037.006-.071.012-.106.006l-1.388-.105-.825.74a.355.355 0 0 1-.146.079l-1.494.425a.401.401 0 0 1-.196 0l.87.987 2.909-.416.25-.506a.38.38 0 0 1 .237-.193.347.347 0 0 1 .3.05l1.098.734 2.443-.563.52-.84-.442.17a.389.389 0 0 1-.17.026h.002zm-6.612-.56l.879-.787a.36.36 0 0 1 .275-.094l1.491.113 1.387-.294c.1-.02.2 0 .285.058l1.022.7 1.04.1c.106-.259.192-.532.257-.81-.017 0-.035 0-.052-.005l-2.85-.391a.368.368 0 0 1-.3-.245l-.505-1.467c-.068-.046-.394-.02-.546.056l-.513 1.44a.373.373 0 0 1-.266.238l-2.794.643c-.018.005-.038.006-.055.008.1.334.235.663.4.979l.848-.241H9.4zM7.087 11.82l.35 2.033.776.588 2.428-.563.488-1.372a.393.393 0 0 1 .133-.175c.042-.029.42-.293.888-.293.55 0 .79.355.816.397l.49 1.397 2.484.34.771-.534.513-1.778a23.54 23.54 0 0 0-10.138-.04h.002zm2.5 1.525h-.224c-.354 0-.582-.015-.783.091.008-.013.096-.208.412-.287a.947.947 0 0 1-.062-.338c-.021-.571.332-1.041.697-1.046.365 0 .62.462.625 1.037.005.575-.3.538-.666.543h.002zm4.99-1.72c.367-.013.7.44.743 1.012a.74.74 0 0 1-.043.359c.338-.04.417.191.42.204-.247-.119-.517.034-1.006.041-.369.012-.671.018-.694-.556-.02-.575.217-1.05.58-1.063v.003zm-4.9.5a.184.184 0 0 0-.18.192c.002.104.09.188.192.181a.191.191 0 0 0 .182-.192.187.187 0 0 0-.192-.181h-.002zm4.872.233c.1 0 .187-.087.182-.187a.185.185 0 0 0-.19-.184.188.188 0 0 0-.184.188c0 .105.088.187.19.184h.002zm-2.494 6.98c1.063 0 2.08-.437 2.906-1.167l1.458-.338a.364.364 0 0 0 .23-.165l1.177-1.9a.37.37 0 0 0-.447-.54l-.735.282c.094-.31.165-.633.209-.963a.405.405 0 0 0 0-.11l.394-.275a.381.381 0 0 0 .15-.221l.543-1.91.045.013.012.002.046.012a.365.365 0 0 0 .415-.17c.187-.322.306-.73.353-1.21.053-.516.018-.938-.102-1.266A.372.372 0 0 0 18.5 9.2c-.319-.13-.644-.25-.973-.359-.487-2.325-2.787-4.05-5.46-4.05-2.667 0-4.97 1.725-5.458 4.048-.332.112-.659.232-.981.362a.369.369 0 0 0-.208.216c-.12.323-.155.748-.104 1.26.048.483.167.892.354 1.213a.368.368 0 0 0 .416.175c.094-.028.188-.05.284-.075l.356 2.117a.365.365 0 0 0 .143.244l.429.322a.381.381 0 0 0 0 .125c.08.45.224.904.418 1.34l-.918-.39a.37.37 0 0 0-.444.126c-.1.14-.093.33.022.462l2.067 2.346c.07.079.172.125.277.125.018 0 .035 0 .053-.005l1.037-.146c.662.425 1.419.682 2.242.684h.007l-.004-.002zm1.162-10.206v.923a.37.37 0 0 1-.37.37h-1.513a.37.37 0 0 1-.368-.371V9.13c0-.179.125-.325.293-.363v-.554h-.688a.371.371 0 0 1-.371-.372v-1.22c0-.205.168-.37.371-.37h3.042a.37.37 0 0 1 .37.371v1.22a.37.37 0 0 1-.37.37h-.688v.557a.37.37 0 0 1 .295.362h-.003zm3.994.384h-.005a.356.356 0 0 1-.216-.071c-.962-.3-1.955-.513-2.967-.63a.367.367 0 0 1-.325-.409.36.36 0 0 1 .41-.325c.874.104 1.74.275 2.583.508-.587-1.78-2.462-3.058-4.627-3.058-2.159 0-4.038 1.277-4.625 3.055.765-.213 1.55-.371 2.344-.475a.368.368 0 1 1 .096.731c-.947.125-1.875.33-2.775.613a.313.313 0 0 1-.12.037c-.309.1-.617.21-.918.329-.035.166-.055.418-.018.784.024.254.074.475.143.666a24.242 24.242 0 0 1 11.744 0c.069-.19.117-.412.143-.666.032-.313.024-.58-.02-.784a18.17 18.17 0 0 0-.85-.305h.003zM13.12 7.472h.125V6.99H10.94v.482h.125a.369.369 0 0 1 .369-.356h.194a.37.37 0 0 1 .37.37V9.13a.372.372 0 0 1-.294.362v.192h.772V9.49a.37.37 0 0 1-.295-.362v-1.64c0-.206.167-.372.37-.372h.198c.2 0 .363.159.369.357z"/>
</svg>
